packages/icons/svg/Outline/grid.svg

<svg fill="none" height="24" viewBox="0 0 24 24" width="24" xmlns="http://www.w3.org/2000/svg"><path clip-rule="evenodd" d="m15 19v-4h4l.001 4zm4-6.0001h-4c-1.103 0-2 .897-2 2v4c0 1.103.897 2 2 2h4c1.103 0 2-.897 2-2v-4c0-1.103-.897-2-2-2zm-13.99998 6.0001v-4h4l.001 4zm3.99998-6.0001h-4c-1.103 0-2 .897-2 2v4c0 1.103.897 2 2 2h4c1.103 0 2-.897 2-2v-4c0-1.103-.897-2-2-2zm6-3.99983v-4h4l.001 4zm4-6.00007h-4c-1.103 0-2 .897-2 2v4c0 1.103.897 2 2 2h4c1.103 0 2-.897 2-2v-4c0-1.103-.897-2-2-2zm-13.99998 6.00007v-4h4l.001 4zm3.99998-6.00007h-4c-1.103 0-2 .897-2 2v4c0 1.103.897 2 2 2h4c1.103 0 2-.897 2-2v-4c0-1.103-.897-2-2-2z" fill="#6b7280" fill-rule="evenodd"/></svg>

<svg width="24" height="24" viewBox="0 0 24 24" fill="none" xmlns="http://www.w3.org/2000/svg">
<g id="Icon/Outline/grid">
<path id="Mask" fill-rule="evenodd" clip-rule="evenodd" d="M15 19V15H19L19.001 19H15ZM19 13H15C13.897 13 13 13.897 13 15V19C13 20.103 13.897 21 15 21H19C20.103 21 21 20.103 21 19V15C21 13.897 20.103 13 19 13ZM5 19V15H9L9.001 19H5ZM9 13H5C3.897 13 3 13.897 3 15V19C3 20.103 3.897 21 5 21H9C10.103 21 11 20.103 11 19V15C11 13.897 10.103 13 9 13ZM15 9V5H19L19.001 9H15ZM19 3H15C13.897 3 13 3.897 13 5V9C13 10.103 13.897 11 15 11H19C20.103 11 21 10.103 21 9V5C21 3.897 20.103 3 19 3ZM5 9V5H9L9.001 9H5ZM9 3H5C3.897 3 3 3.897 3 5V9C3 10.103 3.897 11 5 11H9C10.103 11 11 10.103 11 9V5C11 3.897 10.103 3 9 3Z" fill="#000000"/>
</g>
</svg>
